digital/Imbassy-X-Files/65ef0811cc67439994568a45/65ef0811cc67439994569013_Layer_1-2.svg

<svg fill="none" height="26" viewBox="0 0 187 26" width="187" xmlns="http://www.w3.org/2000/svg"><g fill="#fff"><path d="m70.2913 10.1584v11.5082h-4.2639v-11.5082h-4.3077v-3.66231h12.8805v3.66231h-4.3077z"/><path d="m84.5535 17.0955h-6.7698c.1316 1.2564.8783 1.8197 1.9565 1.8197 1.0111 0 1.8468-.2174 2.9896-.8023l1.5167 2.4923c-1.4278.8228-2.9019 1.2997-4.7025 1.2997-3.4732 0-5.3858-2.4275-5.3858-5.9169 0-3.9217 2.2416-5.9372 5.275-5.9372s5.1434 2.0587 5.1434 6.2844c0 .3255 0 .5633-.0219.7591zm-5.2312-4.162c-.9015 0-1.407.6066-1.5386 1.7333h3.2978c-.1986-1.1483-.5945-1.7333-1.7592-1.7333z"/><path d="m91.9134 21.9049c-3.3843 0-5.4066-2.1236-5.4066-5.9589 0-3.4893 1.803-5.8952 5.4943-5.8952 2.1758 0 3.4294.9969 4.4405 2.6005l-2.7252 2.0371c-.5494-.9969-.9234-1.4738-1.7799-1.4738-1.0123 0-1.5167.9969-1.5167 2.7951 0 1.7981.5495 2.7302 1.6264 2.7302.7468 0 1.2743-.412 2.0003-1.4738l2.506 1.929c-1.3401 1.9507-2.5937 2.7098-4.6379 2.7098z"/><path d="m105.407 21.6659v-6.4586c0-1.4738-.506-1.863-1.318-1.863-.813 0-1.341.3904-1.341 1.8198v6.5018h-3.956v-14.23842l3.956-1.56029v5.17931c.724-.5417 1.538-.9969 2.901-.9969 2.528 0 3.738 1.6684 3.738 4.6592v6.9571h-3.979z"/><path d="m118.857 21.9039c-4.572 0-7.012-3.3379-7.012-7.823 0-4.87548 2.902-7.82309 7.034-7.82309 3.781 0 5.276 1.60353 6.331 4.46469l-3.868 1.4954c-.551-1.4089-1.077-2.29779-2.484-2.29779-1.78 0-2.55 1.75489-2.55 4.16079s.747 4.1607 2.594 4.1607c1.34 0 1.913-.7146 2.747-2.1452l3.605 1.8858c-1.033 1.9939-2.748 3.9229-6.396 3.9229z"/><path d="m134.985 14.5776c-.505-.5417-1.076-.9537-1.846-.9537-.967 0-1.561.4552-1.561 1.8413v6.198h-3.956v-11.3785h3.956v.824c.681-.6498 1.451-1.0618 2.462-1.0618.834 0 1.407.1946 1.867.4768l-.923 4.0527z"/><path d="m144.39 21.6663v-.7591c-.704.5417-1.539.9981-2.879.9981-2.528 0-3.738-1.6683-3.738-4.6604v-6.9558h3.979v6.4585c0 1.4726.506 1.863 1.318 1.863.813 0 1.318-.3904 1.318-1.8209v-6.5006h3.979v11.3784h-3.979z"/><path d="m157.839 21.6671v-6.4586c0-1.4738-.506-1.863-1.318-1.863-.813 0-1.342.3904-1.342 1.8198v6.5018h-3.955v-11.3785h3.955v.7591c.725-.5417 1.539-.9969 2.902-.9969 2.528 0 3.738 1.6684 3.738 4.6592v6.9571h-3.979z"/><path d="m169.528 21.9049c-3.385 0-5.407-2.1236-5.407-5.9589 0-3.4893 1.803-5.8952 5.494-5.8952 2.176 0 3.43.9969 4.441 2.6005l-2.725 2.0371c-.55-.9969-.924-1.4738-1.78-1.4738-1.013 0-1.517.9969-1.517 2.7951 0 1.7981.55 2.7302 1.626 2.7302.747 0 1.275-.412 2.001-1.4738l2.506 1.929c-1.34 1.9507-2.594 2.7098-4.638 2.7098z"/><path d="m183.021 21.6659v-6.4586c0-1.4738-.505-1.863-1.318-1.863-.812 0-1.341.3904-1.341 1.8198v6.5018h-3.956v-14.23842l3.956-1.56029v5.17931c.725-.5417 1.539-.9969 2.902-.9969 2.528 0 3.737 1.6684 3.737 4.6592v6.9571h-3.978z"/><path d="m0 0v8.66627h8.78961v17.33373h8.79079v-17.33373h8.7896v-8.66627z"/><path d="m35.1597 17.3354v-8.66743h-8.7896v17.33373h26.3701v-8.6663z"/><path d="m52.7396 0h-17.5804v8.66627h17.5804z"/></g></svg>

<svg width="187" height="26" viewBox="0 0 187 26" fill="none" xmlns="http://www.w3.org/2000/svg">
<path d="M70.2913 10.1584V21.6666H66.0274V10.1584H61.7197V6.49609H74.6002V10.1584H70.2925H70.2913Z" fill="white"/>
<path d="M84.5535 17.0955H77.7837C77.9153 18.3519 78.662 18.9152 79.7402 18.9152C80.7513 18.9152 81.587 18.6978 82.7298 18.1129L84.2465 20.6052C82.8187 21.428 81.3446 21.9049 79.544 21.9049C76.0708 21.9049 74.1582 19.4774 74.1582 15.988C74.1582 12.0663 76.3998 10.0508 79.4332 10.0508C82.4666 10.0508 84.5766 12.1095 84.5766 16.3352C84.5766 16.6607 84.5766 16.8985 84.5547 17.0943L84.5535 17.0955ZM79.3223 12.9335C78.4208 12.9335 77.9153 13.5401 77.7837 14.6668H81.0815C80.8829 13.5185 80.487 12.9335 79.3223 12.9335Z" fill="white"/>
<path d="M91.9134 21.9049C88.5291 21.9049 86.5068 19.7813 86.5068 15.946C86.5068 12.4567 88.3098 10.0508 92.0011 10.0508C94.1769 10.0508 95.4305 11.0477 96.4416 12.6513L93.7164 14.6884C93.167 13.6915 92.793 13.2146 91.9365 13.2146C90.9242 13.2146 90.4198 14.2115 90.4198 16.0097C90.4198 17.8078 90.9693 18.7399 92.0462 18.7399C92.793 18.7399 93.3205 18.3279 94.0465 17.2661L96.5525 19.1951C95.2124 21.1458 93.9588 21.9049 91.9146 21.9049H91.9134Z" fill="white"/>
<path d="M105.407 21.6659V15.2073C105.407 13.7335 104.901 13.3443 104.089 13.3443C103.276 13.3443 102.748 13.7347 102.748 15.1641V21.6659H98.792V7.42748L102.748 5.86719V11.0465C103.472 10.5048 104.286 10.0496 105.649 10.0496C108.177 10.0496 109.387 11.718 109.387 14.7088V21.6659H105.408H105.407Z" fill="white"/>
<path d="M118.857 21.9039C114.285 21.9039 111.845 18.566 111.845 14.0809C111.845 9.20542 114.747 6.25781 118.879 6.25781C122.66 6.25781 124.155 7.86134 125.21 10.7225L121.342 12.2179C120.791 10.809 120.265 9.92011 118.858 9.92011C117.078 9.92011 116.308 11.675 116.308 14.0809C116.308 16.4868 117.055 18.2416 118.902 18.2416C120.242 18.2416 120.815 17.527 121.649 16.0964L125.254 17.9822C124.221 19.9761 122.506 21.9051 118.858 21.9051L118.857 21.9039Z" fill="white"/>
<path d="M134.985 14.5776C134.48 14.0359 133.909 13.6239 133.139 13.6239C132.172 13.6239 131.578 14.0791 131.578 15.4652V21.6632H127.622V10.2847H131.578V11.1087C132.259 10.4589 133.029 10.0469 134.04 10.0469C134.874 10.0469 135.447 10.2415 135.907 10.5237L134.984 14.5764L134.985 14.5776Z" fill="white"/>
<path d="M144.39 21.6663V20.9072C143.686 21.4489 142.851 21.9053 141.511 21.9053C138.983 21.9053 137.773 20.237 137.773 17.2449V10.2891H141.752V16.7476C141.752 18.2202 142.258 18.6106 143.07 18.6106C143.883 18.6106 144.388 18.2202 144.388 16.7897V10.2891H148.367V21.6675H144.388L144.39 21.6663Z" fill="white"/>
<path d="M157.839 21.6671V15.2085C157.839 13.7347 157.333 13.3455 156.521 13.3455C155.708 13.3455 155.179 13.7359 155.179 15.1653V21.6671H151.224V10.2886H155.179V11.0477C155.904 10.506 156.718 10.0508 158.081 10.0508C160.609 10.0508 161.819 11.7192 161.819 14.71V21.6671H157.84H157.839Z" fill="white"/>
<path d="M169.528 21.9049C166.143 21.9049 164.121 19.7813 164.121 15.946C164.121 12.4567 165.924 10.0508 169.615 10.0508C171.791 10.0508 173.045 11.0477 174.056 12.6513L171.331 14.6884C170.781 13.6915 170.407 13.2146 169.551 13.2146C168.538 13.2146 168.034 14.2115 168.034 16.0097C168.034 17.8078 168.584 18.7399 169.66 18.7399C170.407 18.7399 170.935 18.3279 171.661 17.2661L174.167 19.1951C172.827 21.1458 171.573 21.9049 169.529 21.9049H169.528Z" fill="white"/>
<path d="M183.021 21.6659V15.2073C183.021 13.7335 182.516 13.3443 181.703 13.3443C180.891 13.3443 180.362 13.7347 180.362 15.1641V21.6659H176.406V7.42748L180.362 5.86719V11.0465C181.087 10.5048 181.901 10.0496 183.264 10.0496C185.792 10.0496 187.001 11.718 187.001 14.7088V21.6659H183.023H183.021Z" fill="white"/>
<path d="M0 0V8.66627H8.78961V26H17.5804V8.66627H26.37V0H0Z" fill="white"/>
<path d="M35.1597 17.3354V8.66797H26.3701V26.0017H52.7402V17.3354H35.1597Z" fill="white"/>
<path d="M52.7396 0H35.1592V8.66627H52.7396V0Z" fill="white"/>
</svg>
